X:43
T:Sonata da chiesa Op.1 No.1 - Grave
C:Corelli, A.
M:4/4
L:1/8
Q:1/4=52
K:Amin
|:E2|A4 Bc d2|c2 BA G2 F2|E4 FG A2|B4 A2 G2|
F4 GA B2|A2 GF E2 D2|C4 DE F2|E4 E2:|

